assets/resultsBg.svg

<svg xmlns="http://www.w3.org/2000/svg" width="6038" height="1221" fill="none" xmlns:v="https://vecta.io/nano"><mask id="A" mask-type="alpha" maskUnits="userSpaceOnUse" x="2058" y="0" width="1920" height="1221"><path fill="#007550" d="M2058 0h1920v1221H2058z"/></mask><g mask="url(#A)"><path fill="#007550" d="M2060 0h1920v1221H2060z"/><g style="mix-blend-mode:screen" opacity=".1"><path d="M2447.5 1221.5l1117-2572 41.5-151-205.5-107.5-538-130.5H2056v2961h391.5z" fill="#007550"/></g></g><path fill="#007b55" d="M2081 0H0v1221h2081z"/><path fill="#007550" d="M6038 0H3965v1221h2073z"/><path d="M4126.6 425.856c-3.46 0-6.53-.672-9.22-2.016-2.6-1.344-5.42-3.216-8.5-5.616-2.3-1.728-4.18-2.976-5.62-3.744-1.34-.768-2.73-1.152-4.17-1.152-2.6 0-4.7 1.008-6.34 3.024s-2.5 4.752-2.6 8.208h-13.97c.1-8.832 2.1-15.6 6.05-20.304 3.93-4.8 9.12-7.2 15.55-7.2 3.46 0 6.43.672 8.93 2.016 2.5 1.248 5.42 3.12 8.78 5.616 2.3 1.728 4.13 2.976 5.47 3.744 1.35.768 2.74 1.152 4.18 1.152 2.7 0 4.8-1.008 6.34-3.024 1.53-2.016 2.4-4.752 2.6-8.208h14.1c-.2 8.832-2.26 15.648-6.2 20.448-3.94 4.704-9.07 7.056-15.4 7.056z" fill="#000" fill-opacity=".04"/><path transform="rotate(18.822 3914.36 90.98)" stroke="#fff" stroke-opacity=".04" stroke-width="11" d="M3914.36 90.98h75.56v75.56h-75.56z"/><g fill="#000"><path d="M2409.5 1024.45l-72.07-120.03-87.3 52.415-52.4-87.296-32.74 19.656 72.07 120.034 87.3-52.417 52.4 87.297 32.74-19.66zm1271.48-429.997l72.07-120.032 87.3 52.415 52.4-87.296 32.74 19.656-72.07 120.032-87.3-52.415-52.4 87.296-32.74-19.656z" fill-opacity=".04"/><path fill-opacity=".05" d="M2378.68 238l57.738 19.68-19.68 57.738-57.738-19.68z"/><path fill-opacity=".04" d="M2243.46 407l32.775 3.464-3.464 32.775-32.775-3.464zm1540.22 674l57.738 19.68-19.68 57.738-57.738-19.68z"/></g></svg>

<svg width="6038" height="1221" viewBox="0 0 6038 1221" fill="none" xmlns="http://www.w3.org/2000/svg">
<mask id="mask0" mask-type="alpha" maskUnits="userSpaceOnUse" x="2058" y="0" width="1920" height="1221">
<rect x="2058" width="1920" height="1221" fill="#007550"/>
</mask>
<g mask="url(#mask0)">
<rect x="2060" width="1920" height="1221" fill="#007550"/>
<g style="mix-blend-mode:screen" opacity="0.1">
<path d="M2447.5 1221.5L3564.5 -1350.5L3606 -1501.5L3400.5 -1609L2862.5 -1739.5H2056V1221.5H2447.5Z" fill="#007550"/>
</g>
</g>
<rect width="2081" height="1221" transform="matrix(-1 0 0 1 2081 0)" fill="#007B55"/>
<rect width="2073" height="1221" transform="matrix(-1 0 0 1 6038 0)" fill="#007550"/>
<path d="M4126.6 425.856C4123.14 425.856 4120.07 425.184 4117.38 423.84C4114.79 422.496 4111.96 420.624 4108.89 418.224C4106.58 416.496 4104.71 415.248 4103.27 414.48C4101.93 413.712 4100.54 413.328 4099.1 413.328C4096.5 413.328 4094.39 414.336 4092.76 416.352C4091.13 418.368 4090.26 421.104 4090.17 424.56H4076.2C4076.3 415.728 4078.31 408.96 4082.25 404.256C4086.18 399.456 4091.37 397.056 4097.8 397.056C4101.26 397.056 4104.23 397.728 4106.73 399.072C4109.22 400.32 4112.15 402.192 4115.51 404.688C4117.82 406.416 4119.64 407.664 4120.98 408.432C4122.33 409.2 4123.72 409.584 4125.16 409.584C4127.85 409.584 4129.96 408.576 4131.5 406.56C4133.03 404.544 4133.9 401.808 4134.09 398.352H4148.2C4148.01 407.184 4145.94 414 4142.01 418.8C4138.07 423.504 4132.94 425.856 4126.6 425.856Z" fill="black" fill-opacity="0.04"/>
<rect x="3914.36" y="90.9803" width="75.56" height="75.56" transform="rotate(18.8218 3914.36 90.9803)" stroke="white" stroke-opacity="0.04" stroke-width="11"/>
<path d="M2409.5 1024.45L2337.43 904.421L2250.13 956.836L2197.72 869.54L2164.98 889.196L2237.05 1009.23L2324.35 956.813L2376.76 1044.11L2409.5 1024.45Z" fill="black" fill-opacity="0.04"/>
<path d="M3680.98 594.453L3753.05 474.421L3840.35 526.836L3892.76 439.54L3925.5 459.196L3853.43 579.228L3766.13 526.813L3713.72 614.109L3680.98 594.453Z" fill="black" fill-opacity="0.04"/>
<rect x="2378.68" y="238" width="61" height="61" transform="rotate(18.8218 2378.68 238)" fill="black" fill-opacity="0.05"/>
<rect x="2243.46" y="407" width="32.958" height="32.958" transform="rotate(6.03387 2243.46 407)" fill="black" fill-opacity="0.04"/>
<rect x="3783.68" y="1081" width="61" height="61" transform="rotate(18.8218 3783.68 1081)" fill="black" fill-opacity="0.04"/>
</svg>
